X:1
T:91bcontrapuntoProlon­gadoB
T:
I:linebreak !
L:1/4
K:Cmaj
V:1 clef=treble
A4 |B4 |c4|f4|e4|
V:2 clef=treble
z CDE |D C B,A,|G,GAG|AGFG|A4|
V:3 clef=bass
A,,2 F,2|G,2F,2|E,2C,2|D,2E,2|F,4|
W:Este ejemplo muestra varios de los usos característicos de la disonan-·
W:cia que, lógicamente, pueden surgir tambien en otro· tipo de combinaéión.
W:Como mu€!straa los compases 2 y 4, ahora es posible, debido a que exis­
W:te n dos voces en «especie», que se origina frecuentemente incluso tres
W:disonancias en sucesión, una circunstancia que sólo raramente surge en el
W:contrantrapunto elemental. Estas tres disonancias sucesivas pueden aparecer
W:- como resultado de un m o vim i e n t o de bordadura en una voz con un 
W:movimiento de paso en otra (compás 4), o como resultado de un movimiento
W:de paso 'en cada una de las voces (compás 2).